X: 6
T: Out On The Ocean
R: jig
M: 6/8
L: 1/8
K: Gmaj
DBB BAG|BdB AAA|GED G2A|BBB AGE|DBB BAG|BdB AAA|GED G2A|1AGF G3:|2 AGF AB/c/d|||:e2e edB|e2e edB|d3 def|gfe dBA|G2A B2d|efe dBA|GED G2A|1AGF AB/c/d:|2 AGF G3||


Tune 108	Setting 21048

